X: 4279
T: DUBLIN HORNPIPE
%R: hornpipe, reel
B: James Kerr "Merry Melodies" v.4 p.30 #279
Z: 2016 John Chambers <jc:trillian.mit.edu>
M: C
L: 1/8
K: D
(3ABc) |\
dcdf ecAc | dBGB AFDF |\
GBFB EBdf | edcB ABcd |\
e>A A/A/A f>A A/A/A |
gfge (aA)A2 |\
(3ABc (3dcB (3ABG (3FGE | D2D2D2 ::\
d2 |\
cdef gfge | defg agaf |\
bgea fddf |
edcB A2(Ad) |\
cdef gfge | defg agaf |\
bgea fddf |[1 edcB A2 :|[2 edcB Agfe |]

%%sep 1 1 500
%%sep 1 1 500

